X:1
T:Title
%%score { 1 | 2 }
L:1/8
Q:1/4=100
M:4/4
K:G
V:1 treble nm="Grand Piano"
V:2 treble 
V:1
 D2 G>A B2 B2 | BB c2 B4 | [CFB]2 [CFA]2 [A,DF]2 [CDA]2 | [B,DG]2 [B,D]>[CE] [B,D]4 | %4
w: W.~H.~Doane * * * *||||
 D2 G>A B2 B2 | BB c2 B4 | [Fd]2 [Fc]2 [CFA]2 [CDF]2 | [B,DG]6 z2 | [CEG]2 [EGc]>[EGc] [EGc]4 | %9
w: |||||
 B2 d>d d4 | [Fd]2 [Fc]2 [FA]2 F2 | G2 D>G B4 | E2 [EG]2 [Ec]2 [CE]2 | [B,D]2 G2 B2 d2 | %14
w: |||||
 [Fd]2 [Fc]2 [DFA]2 [CDF]2 | [B,DG]6 z2 | B2 B>B c2 B2 | G<G B2 d4 | [FB]2 [FA]2 [Fc]2 F2 | %19
w: |||||
 G2 D>G B4 | [^GB]2 [GB]>[GB] [Bd]2 [Ac]2 | [FA]<[FA] [FA]2 [Ac]2 B2 | G2 B>B [Gd]2 F2 | G6 z2 |] %24
w: |||||
V:2
 [G,B,]2 [G,B,D]>[G,CD] [G,DG]2 [G,DG]2 | [G,DG][G,DG] [G,EG]2 [G,DG]4 | D,2 D,2 D,2 D,2 | %3
 G,,2 [G,,G,]>[G,,G,] [G,,G,]4 | [G,B,]2[K:treble] [G,B,D]>[G,CD] [G,DG]2 [G,DG]2 | %5
 [G,DG][G,DG] [G,EG]2 [G,DG]4 | [D,D]2 [D,A,]2 D,2 D,2 | G,6 z2 | C,2 C,>C, C,4 | %9
 [G,DG]2 [G,B,G]>[G,B,G] [G,B,G]4 | [D,A,]2 [D,A,]2 [D,D]2 [D,D]2 | %11
 [G,B,D]2 [G,B,]>[K:treble][G,B,D] [G,DG]4 | [C,C]2 [C,C]2 [C,G,]2 [C,G,]2 | %13
 [G,,G,]2[K:treble] [G,B,D]2 [G,DG]2 [G,B,G]2 | [D,A,]2 [D,A,]2 D,2 D,2 | G,,6 z2 | %16
 [G,DG]2 [G,DG]>[G,CG] [G,EG]2 [G,DG]2 | [G,B,D]<[G,B,D] [G,DG]2 [G,B,G]4 | %18
 [D,D]2 [D,D]2 [D,A,]2 [D,CD]2 | [G,B,D]2 [G,B,]>[K:treble][G,B,D] [G,DG]4 | %20
 [E,E]2 [E,E]>[E,E] [A,E]2 [A,E]2 | [D,D]<[D,D] [D,D]2[K:treble] [G,D]2 [G,DG]2 | %22
 [G,B,D]2 [G,DG]>[G,DG][K:bass] [D,B,]2 [D,CD]2 | [G,B,D]6 z2 |] %24

